!!!OTL: Vogellied (3-18), S. 63
!!!id: P0990
**kern
*clefG2
*k[f#]
*G:
{8d
=1
8g
8b
8a
8g
=2
8f#
8f#}
8r
=3
{8d
=4
8e
8g
8f#
8e
=5
4d}
8r
=6
{8g
=7
8cc
8cc
8b
8g
=8
8cc
8cc}
8r
=9
{8ee
=10
8dd
8b
8cc
8a
=11
4g}
8r
==
*-
!!!minrhy: 8
!!!meters: 2/4 ]  ZZ[4
!!!cut: Vogellied (3-18), S. 63
!!!reg: Lothringen
!!!trd: PINCK, Louis: Verklingende Weisen, Bd3, Metz 1933
!!!rhy1: X  XXXX  XX0
!!!rhy2: X  XXXX  X_0
!!!key: P0990  08  G 2/4 ]  ZZ[4
!!!mod: HEPTATONIK IONISCH]  AMBITUS[9
!!!kad: -7-541
!!!akz: 1-7_-6-5_44_51_
!!!fot: 'a__as'b__c__
!!!for: 'a__aw_a__aw_
!!!fok: '^a_^__~a_\__
!! PHRAS[AUFTAKTIG]
!!!fkt: yyy?
!! LOTH VKL
!! PR[30] 2K[0] 2G[7] 3K[7] 3G[7] 4A[4] 4Ü[0] 5A[0] 6K[0] 6G[0]
!! 7K[0] 7G[0] 8A[0] MEHR[0] SI[26] ABS[27] SR[7] SP[19]
!! ST[10] 2k[11] 2g[26] 3k[0] 3g[4] 4d[4] 4ü[0] 5d[0] 6k[0] 6g[0]
!! 7k[0] 7g[0] 8d[0] mehr[0] si[44] dm[-18] sr[37] sp[7]
!! 1F[3] 2F[62] 3F[24] 4F[0] LF[0] 2P[3] 3P[7] 4P[0] TRI[0] DF[5] AB[29]
!! TF[0] U3K[0] U3[0] U4[0] U4Ü[0] U5[0] U6K[0] U6[0] U7K[0] U7[0]
!! N1[4] N2K[0] N2[4] N3K[0] N3[14] N4[14] N4Ü[0] N5[36] N6K[0] N6[11]
!!!n7k: 0] N7[7] O1[7] O2K[0] O2[4] O3K[0] O3[0] HÖ[0
